src/lib/packages/icons/src/assets/line/sort-horizontal.svg

<svg width="24" height="24" viewBox="0 0 24 24" fill="none" xmlns="http://www.w3.org/2000/svg">
<path d="M10.5301 8.53005L7.06008 12L10.5301 15.47C10.8231 15.763 10.8231 16.238 10.5301 16.531C10.3841 16.677 10.192 16.751 10 16.751C9.80802 16.751 9.61599 16.678 9.46999 16.531L5.46999 12.531C5.17699 12.238 5.17699 11.763 5.46999 11.47L9.46999 7.46999C9.76299 7.17699 10.238 7.17699 10.531 7.46999C10.824 7.76299 10.8231 8.23705 10.5301 8.53005ZM18.5301 11.47L14.5301 7.46999C14.2371 7.17699 13.762 7.17699 13.469 7.46999C13.176 7.76299 13.176 8.23803 13.469 8.53103L16.939 12.001L13.469 15.471C13.176 15.764 13.176 16.239 13.469 16.532C13.615 16.678 13.807 16.752 13.999 16.752C14.191 16.752 14.3831 16.679 14.5291 16.532L18.5291 12.532C18.8231 12.237 18.8231 11.763 18.5301 11.47Z" fill="currentColor"/>
</svg>

<svg xmlns="http://www.w3.org/2000/svg" width="24" height="24" fill="none"><path fill="currentColor" d="M10.53 8.53 7.06 12l3.47 3.47a.75.75 0 0 1-1.06 1.061l-4-4a.75.75 0 0 1 0-1.061l4-4a.75.75 0 1 1 1.06 1.06Zm8 2.94-4-4a.75.75 0 0 0-1.061 1.061l3.47 3.47-3.47 3.47a.75.75 0 0 0 1.06 1.061l4-4a.75.75 0 0 0 .001-1.062Z"/></svg>
